assets/icons/social-twitter.svg

<?xml version="1.0" encoding="UTF-8"?>
<svg width="36px" height="36px" viewBox="0 0 36 36" version="1.1" xmlns="http://www.w3.org/2000/svg" xmlns:xlink="http://www.w3.org/1999/xlink">
    <!-- Generator: Sketch 47.1 (45422) - http://www.bohemiancoding.com/sketch -->
    <title>menu-twitter</title>
    <desc>Created with Sketch.</desc>
    <defs></defs>
    <g id="Page-1" stroke="none" stroke-width="1" fill="none" fill-rule="evenodd" opacity="0.8">
        <g id="intranet.st.5" transform="translate(-202.000000, -954.000000)" fill-rule="nonzero" fill="#FFFFFF">
            <g id="Aside-Left" transform="translate(0.000000, 80.000000)">
                <g id="Group-16" transform="translate(100.000000, 823.000000)">
                    <g id="Group" transform="translate(0.000000, 51.000000)">
                        <g id="menu-twitter" transform="translate(102.000000, 0.000000)">
                            <path d="M18,0 C8.0586,0 0,8.0595 0,18 C0,27.9405 8.0586,36 18,36 C27.9405,36 36,27.9405 36,18 C36,8.0595 27.9405,0 18,0 Z M25.9029,13.1346 C25.839,13.2471 25.2414,13.8159 24.8904,14.175 C24.2946,14.7924 24.3,14.9238 24.3,15.4404 C24.3,16.2378 23.8032,17.712 23.4405,18.621 C22.77,20.3292 21.3336,22.0914 19.8963,22.9788 C17.8731,24.2253 15.1803,24.5403 12.9132,23.8104 C12.1572,23.5629 10.8585,22.9338 10.8585,22.8213 C10.8585,22.7871 11.2527,22.7421 11.7315,22.7304 C12.7323,22.7079 13.7322,22.4163 14.5836,21.9006 L15.1587,21.5406 L14.499,21.3048 C13.5621,20.9673 12.7215,20.1924 12.5091,19.4625 C12.4452,19.2267 12.4668,19.2159 13.0626,19.2159 L13.68,19.2042 L13.158,18.9459 C12.5406,18.6201 11.9772,18.0702 11.7,17.5086 C11.4975,17.1045 11.2419,16.0821 11.3166,16.0047 C11.3373,15.9705 11.5614,16.0389 11.817,16.128 C12.5514,16.4088 12.6468,16.3413 12.222,15.8697 C11.4237,15.0165 11.178,13.7475 11.5614,12.546 L11.7423,12.0069 L12.4452,12.7368 C13.8825,14.2074 15.5745,15.0831 17.5122,15.3423 L18.0441,15.4098 L18.0126,14.8599 C18.0117,14.8419 18.0108,14.8302 18.0099,14.814 C18.0099,14.805 18.009,14.7951 18.0081,14.7843 C18,14.661 17.9928,14.5593 17.9883,14.4819 C17.9865,14.4585 17.9856,14.436 17.9838,14.4135 C17.9811,14.3667 17.9784,14.3298 17.9766,14.3019 C17.9712,14.2191 17.9694,14.1948 17.9766,14.3019 C17.9784,14.3334 17.9811,14.3703 17.9838,14.4135 C17.9856,14.4342 17.9865,14.4558 17.9883,14.4819 C17.9955,14.5917 18.0036,14.7096 18.0081,14.7843 C18.009,14.7951 18.009,14.8032 18.0099,14.814 C18.0117,14.841 18.0126,14.8599 18.0126,14.8599 C17.9163,13.4343 18.7578,12.1311 20.088,11.6262 C20.5776,11.4462 21.4074,11.4237 21.951,11.5812 C22.1634,11.6487 22.5684,11.8737 22.8546,12.0753 L23.4,12.2202 C23.4,12.2202 25.65,11.16 25.65,11.1933 C25.65,11.3841 24.8346,12.591 24.5052,12.9501 C24.0579,13.4559 24.3855,13.4082 25.2909,13.0707 C25.8336,12.8808 26.0091,12.9213 25.9029,13.1346 Z" id="Shape"></path>
                        </g>
                    </g>
                </g>
            </g>
        </g>
    </g>
</svg>

<svg id="Layer_1" data-name="Layer 1" xmlns="http://www.w3.org/2000/svg" viewBox="0 0 36 36"><title>social-twitter</title><g id="Page-1"><g id="intranet.st.5"><g id="Aside-Left"><g id="Group-16"><g id="Group"><g id="menu-twitter"><path id="Shape" d="M18,0A18,18,0,1,0,36,18,18,18,0,0,0,18,0Zm7.9,13.13a13,13,0,0,1-1,1,1.36,1.36,0,0,0-.59,1.27,11.31,11.31,0,0,1-.86,3.18A9.66,9.66,0,0,1,19.9,23a8.65,8.65,0,0,1-7,.83,8,8,0,0,1-2.05-1,3,3,0,0,1,.87-0.09,5.8,5.8,0,0,0,2.85-.83l0.58-.36L14.5,21.3a3.27,3.27,0,0,1-2-1.84c-0.06-.24,0-0.25.55-0.25h0.62l-0.52-.26a3.51,3.51,0,0,1-1.46-1.44,4.16,4.16,0,0,1-.38-1.5,1.21,1.21,0,0,1,.5.12c0.73,0.28.83,0.21,0.4-.26a3.35,3.35,0,0,1-.66-3.32L11.74,12l0.7,0.73a8.53,8.53,0,0,0,5.07,2.61L18,15.41V14.3h0v0.56a3.22,3.22,0,0,1,2.08-3.23,3.48,3.48,0,0,1,1.86,0,4.28,4.28,0,0,1,.9.49l0.55,0.14s2.25-1.06,2.25-1A7.89,7.89,0,0,1,24.51,13c-0.45.51-.12,0.46,0.79,0.12C25.83,12.88,26,12.92,25.9,13.13Z"/></g></g></g></g></g></g></svg>
